X: 2362
T: The Nymph
%R: march
B: Niel Gow & Sons "A Second Second Collection of Strathspey Reels, etc." v.2 p.36 #2
Z: 2022 John Chambers <jc:trillian.mit.edu>
M: 2/4
L: 1/16
K: C
% - - - - - - - - - -
V: 1 staves=2
|:\
c2TcB c2G2 | c2e2g2e2 | f2d2Tc2B2 | (cBc)d c2G2 |\
c2TcB c2G2 | c2e2g2e2 | f2d2Tc2B2 | {B}c4c4 ::\
(f2e2)e4 | d2c2Tc4 | B2c2d2e2 | (fgfe) d4 |
f2e2e4 | d2c2Tc4 | e2c2 (ed)cB | {B}c4c4 ::\
!p!e6g2 | {B}c6e2 | (^c2d2)f2d2 | {c}B4A2G2 |\
Tc4d2e2 | Tf6e2 | d2c2 {e}d2cB | {B}c4 c4 :|
% - - - - - - - - - -
% Voice 2 preserves the staff layout in the book.
V: 2 clef=bass middle=d
|:\
c4c'4 | c4e4 | f4g4 | c'4c4 |\
c4c'4 | c4e4 | f4g4 | c'4c4 ::\
d'2c'2 c'4 | g2e2e4 | g4g4 |
b2c'2g4 |\
(d'2c'2)c'4 | g2e2e4 | c4g2G2 | c4c4 ::\
!p!c'4c'4 | c'4a4 | d'4d4 | g4G4 |\
e4f2g2 | a6g2 | f4g2G2 | c4c4 :|


